icon-themes/sifr_svg/cmd/sc_anchormenu.svg

<svg viewBox="0 0 16 16" xmlns="http://www.w3.org/2000/svg"><path d="m8 0a2 2 0 0 0 -2 2 2 2 0 0 0 1 1.73v2.27h-2v2h2v4.9a6 5.5 0 0 1 -4.38-2.98l-1.62 1.08v.1a8 7.5 0 0 0 7 3.9 8 7.5 0 0 0 7-3.9v-.1l-1.62-1.1a6 5.5 0 0 1 -4.38 3.01v-4.91h2v-2h-2v-2.27a2 2 0 0 0 1-1.73 2 2 0 0 0 -2-2z" fill="#555753"/></svg>

<svg xmlns="http://www.w3.org/2000/svg" viewBox="0 0 16 16">
 <path
   style="fill:#555753"
   d="M 8 0 A 2 2 0 0 0 6 2 A 2 2 0 0 0 7 3.73 L 7 6 L 5 6 L 5 8 L 7 8 L 7 12.9 A 6 5.5 0 0 1 2.62 9.92 L 1 11 L 1 11.1 A 8 7.5 0 0 0 8 15 A 8 7.5 0 0 0 15 11.1 L 15 11 L 13.38 9.9 A 6 5.5 0 0 1 9 12.91 L 9 8 L 11 8 L 11 6 L 9 6 L 9 3.73 A 2 2 0 0 0 10 2 A 2 2 0 0 0 8 0 z "
   />
</svg>
